X: 21601
T: Killarney Boys Of Pleasure, The
R: reel
M: 4/4
K: Edorian
|:~E3D E2FA|BFAF DEFA|~B3d efec|cBBA FEED|
(3EFG FD EGFA|BdAF DEFA|~B3d efec|1 cBBA FEED:|2 cBBA FEFA||
|:Beed Befe|dBAF DEFA|dffe fgfe|dBAF DEFA|
Beed Befe|dBAF DEFA|dffe defe|1 dBAF FEE2:|2 dBAF FEFD||

